Adwaita++/apps/16/preferences-desktop-screensaver.svg

<svg height="16" width="16" xmlns="http://www.w3.org/2000/svg">
  <g fill="#474747">
    <path d="m12.109 5c.62.75.995 1.71.995 2.76a4.344 4.344 0 0 1 -4.344 4.344c-1.05 0-2.01-.376-2.76-.995a5.055 5.055 0 0 0 4.932 3.891 5.068 5.068 0 0 0 5.068-5.068c0-2.399-1.653-4.407-3.891-4.932zm-5.598-3.21c.4 0 .721.322.721.721a.72.72 0 0 1 -.72.721.72.72 0 0 1 -.722-.72c0-.4.322-.722.721-.722zm4 1.023a.697.697 0 1 1 0 1.398.697.697 0 0 1 -.699-.7c0-.387.312-.698.7-.698zm-3 1.977c.4 0 .721.322.721.721a.72.72 0 0 1 -.72.721.72.72 0 0 1 -.722-.72c0-.4.322-.722.721-.722z"/>
    <path d="m3.505 7.505-.745-2.255-2.255-.745 2.255-.745.745-2.255.745 2.255 2.255.745-2.255.745z"/>
  </g>
</svg>

<svg xmlns="http://www.w3.org/2000/svg" width="16" height="16">
    <g fill="#474747">
        <path d="M12.109 5c.62.75.995 1.71.995 2.76a4.344 4.344 0 0 1-4.344 4.344c-1.05 0-2.01-.376-2.76-.995A5.055 5.055 0 0 0 10.932 15 5.068 5.068 0 0 0 16 9.932C16 7.533 14.347 5.525 12.109 5zM6.511 1.79c.4 0 .721.322.721.721a.72.72 0 0 1-.72.721.72.72 0 0 1-.722-.72c0-.4.322-.722.721-.722zM10.511 2.813a.697.697 0 1 1 0 1.398.697.697 0 0 1-.699-.7c0-.387.312-.698.7-.698zM7.511 4.79c.4 0 .721.322.721.721a.72.72 0 0 1-.72.721.72.72 0 0 1-.722-.72c0-.4.322-.722.721-.722z" style="marker:none" color="#bebebe" overflow="visible"/>
        <path d="M3.505 7.505L2.76 5.25.505 4.505 2.76 3.76l.745-2.255.745 2.255 2.255.745-2.255.745z" style="marker:none" color="#000" overflow="visible"/>
    </g>
</svg>
